lib/img/icons/ui/checkbox-checked.svg

<?xml version="1.0" encoding="utf-8"?>
<!-- Generated by IcoMoon.io -->
<!DOCTYPE svg PUBLIC "-//W3C//DTD SVG 1.1//EN" "http://www.w3.org/Graphics/SVG/1.1/DTD/svg11.dtd">
<svg version="1.1" xmlns="http://www.w3.org/2000/svg" xmlns:xlink="http://www.w3.org/1999/xlink" width="32" height="32" viewBox="0 0 32 32">
<path fill="rgb(0, 0, 0)" d="M2 2v28h28v-28h-28zM26 26h-20v-20h20v20zM12.992 23.146l-4.99-5.346 2-2 2.976 3.119 8.901-8.9 2.121 2.121-11.008 11.006z"></path>
</svg>

<svg xmlns="http://www.w3.org/2000/svg" width="32" height="32" viewBox="0 0 32 32" class="svg-icon">
    <path d="M2 2v28h28V2H2zm24 24H6V6h20v20zm-13.008-2.854L8.002 17.8l2-2 2.976 3.119 8.901-8.9L24 12.14 12.992 23.146z"/>
</svg>
